resources/readme/remote-explorer.svg

<svg width="24" height="24" viewBox="0 0 24 24" fill="none" xmlns="http://www.w3.org/2000/svg">
<rect width="24" height="24" fill="white"/>
<path fill-rule="evenodd" clip-rule="evenodd" d="M1.34401 2.12499H21.656L22.438 2.90599V11.505C21.954 11.1416 21.4295 10.8355 20.875 10.593V3.68799H2.12501V17.75H9.93801C9.93779 19.4405 10.4859 21.0855 11.5 22.438H5.25001V20.875H9.93801V19.312H1.34401L0.562012 18.532V2.90499L1.34401 2.12499ZM17.75 11.5C16.9292 11.5 16.1165 11.6617 15.3582 11.9757C14.6 12.2898 13.911 12.7502 13.3306 13.3306C12.7502 13.9109 12.2899 14.5999 11.9758 15.3582C11.6617 16.1165 11.5 16.9292 11.5 17.75C11.5 18.5708 11.6617 19.3835 11.9758 20.1418C12.2899 20.9 12.7502 21.589 13.3306 22.1694C13.911 22.7498 14.6 23.2101 15.3582 23.5242C16.1165 23.8383 16.9292 24 17.75 24C19.4076 24 20.9973 23.3415 22.1694 22.1694C23.3415 20.9973 24 19.4076 24 17.75C24 16.0924 23.3415 14.5027 22.1694 13.3306C20.9973 12.1585 19.4076 11.5 17.75 11.5ZM17.75 22.438C16.5065 22.438 15.314 21.944 14.4347 21.0648C13.5555 20.1855 13.0615 18.993 13.0615 17.7495C13.0615 16.506 13.5555 15.3135 14.4347 14.4342C15.314 13.555 16.5065 13.061 17.75 13.061C18.9935 13.061 20.186 13.555 21.0653 14.4342C21.9445 15.3135 22.4385 16.506 22.4385 17.7495C22.4385 18.993 21.9445 20.1855 21.0653 21.0648C20.186 21.944 18.9935 22.438 17.75 22.438ZM20.353 19.306L18.2 17.153L20.353 15L21 15.646L19.494 17.153L21 18.659L20.353 19.306ZM15 17.246L16.506 18.753L15 20.259L15.647 20.906L17.8 18.753L15.647 16.6L15 17.246Z" fill="black"/>
</svg>

<svg width="24" height="24" viewBox="0 0 24 24" xmlns="http://www.w3.org/2000/svg" fill="currentColor"><path fill-rule="evenodd" clip-rule="evenodd" d="M1.344 2.125h20.312l.782.781v8.599a7.825 7.825 0 0 0-1.563-.912V3.688H2.125V17.75h7.813a7.813 7.813 0 0 0 1.562 4.688H5.25v-1.563h4.688v-1.563H1.344l-.782-.78V2.905l.782-.781zM17.75 11.5a6.25 6.25 0 1 0 0 12.5 6.25 6.25 0 0 0 0-12.5zm0 10.938a4.688 4.688 0 1 1 0-9.377 4.688 4.688 0 0 1 0 9.377zm2.603-3.132L18.2 17.153 20.353 15l.647.646-1.506 1.507L21 18.659l-.647.647zM15 17.246l1.506 1.507L15 20.259l.647.647 2.153-2.153-2.153-2.153-.647.646z"/></svg>
